!!!COM: Palestrina, Giovanni Perluigi da
!!!OPR: Missa Sacerdos et pontifex
!!!OTL: Agnus I
**kern	**kern	**kern	**kern	**kern
*Ibass	*Itenor	*Itenor	*Icalto	*Icant
!Bassus	!Tenor 2	!Tenor 1	!Altus	!Cantus
*clefF4	*clefGv2	*clefGv2	*clefG2	*clefG2
*k[b-]	*k[b-]	*k[b-]	*k[b-]	*k[b-]
*G:dor	*G:dor	*G:dor	*G:dor	*G:dor
*M4/2	*M4/2	*M4/2	*M4/2	*M4/2
=1	=1	=1	=1	=1
0r	1d	0r	0r	0r
.	2e-	.	.	.
.	[2d	.	.	.
=2	=2	=2	=2	=2
0G	4d]	1d	0r	0r
.	4c	.	.	.
.	4B-	.	.	.
.	4A	.	.	.
.	2.B-	2e-	.	.
.	.	[2d	.	.
.	4c	.	.	.
=3	=3	=3	=3	=3
1G	2d	2d]	0r	0r
.	2e-	4c	.	.
.	.	4B-	.	.
1F#	[1d	4A	.	.
.	.	4G	.	.
.	.	2A	.	.
=4	=4	=4	=4	=4
1G	0d]	2.B-	1r	1r
.	.	4A	.	.
2.B-	.	4G	[1g	1dd
.	.	4F	.	.
.	.	[2G	.	.
4A	.	.	.	.
=5	=5	=5	=5	=5
4G	1.B-	4G]	1g]	2ee-
4F	.	4A	.	.
1G	.	4B-	.	1dd
.	.	4c	.	.
.	.	2d	1g	.
2C	2G	[2e-	.	4cc
.	.	.	.	4b-
=6	=6	=6	=6	=6
1D	1d	4e-]	1f	4a
.	.	4d	.	4g
.	.	1d	.	2a
1E-	1G	.	1g	2g
.	.	2c	.	2gg
=7	=7	=7	=7	=7
2BB-	2r	2d	1b-	2ff
1B-	2d	2B-	.	2dd
.	2c	1F	1cc	2.ff
2A	[2f	.	.	.
.	.	.	.	4ee-
=8	=8	=8	=8	=8
1.B-	4f]	1f	1.b-	4dd
.	4e-	.	.	4cc
.	4d	.	.	1dd
.	4c	.	.	.
.	4d	2.f	.	.
.	4e-	.	.	.
2F	2f	.	2a	[2cc
.	.	4e-	.	.
=9	=9	=9	=9	=9
2G	1B-	2d	1g	4cc]
.	.	.	.	4b-
2E-	.	2e-	.	1b-
1F	2r	1c	2.f	.
.	[2f	.	.	2a
.	.	.	4e-	.
=10	=10	=10	=10	=10
0BB-	2f]	1B-	1d	1b-
.	2.g	.	.	.
.	.	1B-	1b-	1dd
.	4f	.	.	.
.	[2f	.	.	.
=11	=11	=11	=11	=11
0r	4f]	1c	1g	1cc
.	8e	.	.	.
.	8d	.	.	.
.	2e	.	.	.
.	4f	1d	1f	1a
.	4g	.	.	.
.	4a	.	.	.
.	4f	.	.	.
=12	=12	=12	=12	=12
0r	2g	1B-	1b-	1dd
.	2f	.	.	.
.	2e-	2c	2g	2cc
.	2d	2d	2f	2b-
=13	=13	=13	=13	=13
0r	1c	1e-	2g	1cc
.	.	.	2a	.
.	1B-	1d	1b-	2f
.	.	.	.	2ff
=14	=14	=14	=14	=14
1F	1f	0r	1a	4ff
.	.	.	.	4ee
.	.	.	.	4dd
.	.	.	.	4cc
1G	1d	.	1g	4b-
.	.	.	.	4a
.	.	.	.	2b-
=15	=15	=15	=15	=15
1A	2.c	0r	2e	1a
.	.	.	2a	.
.	4B-	.	.	.
1F	2A	.	4a	1cc
.	.	.	4g	.
.	2a	.	4f	.
.	.	.	4e	.
=16	=16	=16	=16	=16
2G	2g	0r	2d	2b-
2A	2.f	.	2c	1a
1B-	.	.	1d	.
.	4e	.	.	.
.	[2d	.	.	2g
=17	=17	=17	=17	=17
1A	2d]	1r	1e	1a
.	2c#	.	.	.
1D	1d	2r	2f	2r
.	.	[2f	[2a	[2dd
=18	=18	=18	=18	=18
0r	0r	2f]	2a]	2dd]
.	.	2e	2g	2cc
.	.	2.d	2.f	2b-
.	.	.	.	2a
.	.	4c	4e	.
=19	=19	=19	=19	=19
0r	2r	2B-	2d	2.ff
.	1f	2A	2c	.
.	.	.	.	4ee
.	.	2B-	2d	2dd
.	2e	2c	[2g	2cc
=20	=20	=20	=20	=20
0r	2.d	4G	2g]	4b-
.	.	4A	.	4cc
.	.	4B-	2.f	4dd
.	4c	4c	.	4ee
.	2B-	4d	.	2.ff
.	.	4e	4g	.
.	2A	[2f	2a	.
.	.	.	.	4ee
=21	=21	=21	=21	=21
0r	2B-	2f]	2d	2dd
.	2c	2e	2.g	1cc
.	1G	2d	.	.
.	.	.	4f	.
.	.	[2g	2d	2b
=22	=22	=22	=22	=22
2r	1c	4g]	1e	1cc
.	.	4f	.	.
1c	.	1e	.	.
.	2.g	.	1r	1r
2B-	.	2d	.	.
.	4g	.	.	.
=23	=23	=23	=23	=23
2.A	2f	1c	1r	0r
.	2e	.	.	.
4G	.	.	.	.
2F	2a	1c	2r	.
2E	2g	.	[2cc	.
=24	=24	=24	=24	=24
2F	4f	1.d	2cc]	0r
.	4e	.	.	.
2G	4d	.	2b-	.
.	4e	.	.	.
4D	4f	.	2.a	.
4E	4g	.	.	.
4F	[2a	4c	.	.
4G	.	4B-	4g	.
=25	=25	=25	=25	=25
4A	2a]	1c	2f	1r
4B-	.	.	.	.
1c	4g	.	2e	.
.	4f	.	.	.
.	1g	1G	1d	2r
2B-	.	.	.	[2dd
=26	=26	=26	=26	=26
1A	1a	1r	2.e	2dd]
.	.	.	.	2cc
.	.	.	4f	.
1G	[1d	2r	1g	2.b-
.	.	[2G	.	.
.	.	.	.	4a
=27	=27	=27	=27	=27
1.B-	1d]	4G]	2r	2g
.	.	4A	.	.
.	.	4B-	1dd	2f
.	.	4c	.	.
.	1r	4d	.	2g
.	.	4e	.	.
2A	.	2f	2cc	2a
=28	=28	=28	=28	=28
2.G	1r	1g	2.b-	2d
.	.	.	.	4g
4F	.	.	4a	4a
2E-	2r	1r	2g	4b-
.	.	.	.	4cc
2D	[2B-	.	2f	2dd
=29	=29	=29	=29	=29
2E-	2B-]	1r	2g	1cc
2F	2A	.	2a	.
1BB-	2.B-	2r	2.d	2r
.	.	[2d	.	[2ff
.	4c	.	4e	.
=30	=30	=30	=30	=30
0r	2d	2d]	4f	2ff]
.	.	.	4g	.
.	2e	2c	4a	2ee
.	.	.	8g	.
.	.	.	8a	.
.	1f	2.B-	1b-	2.dd
.	.	4A	.	4cc
=31	=31	=31	=31	=31
0r	2g	2G	1.dd	2b-
.	2a	2F#	.	2a
.	2d	2G	.	2b-
.	[2a	2A	2cc	2cc
=32	=32	=32	=32	=32
0r	4a]	2.B-	2b-	[0dd
.	4g	.	.	.
.	1g	.	2b-	.
.	.	4c	.	.
.	.	1d	1a	.
.	2f#	.	.	.
=33	=33	=33	=33	=33
2r	2g	4G	2b-	0dd]
.	.	4A	.	.
1G	2d	4B-	1b-	.
.	.	4c	.	.
.	2G	1d	.	.
2F	2A	.	2a	.
=34	=34	=34	=34	=34
2.E-	1B-	1G	2.g	0r
4D	.	.	4f	.
2C	2c	[1g	2e-	.
2BB	2d	.	2d	.
=35	=35	=35	=35	=35
[0C	2.e-	2g]	0c	1.gg
.	.	2f	.	.
.	4d	.	.	.
.	1c	2.e-	.	.
.	.	.	.	2ff
.	.	4d	.	.
=36	=36	=36	=36	=36
0C]	[0G	2c	0g	2ee-
.	.	2d	.	2dd
.	.	1e-	.	1cc
=37	=37	=37	=37	=37
0G	0G]	0d	0g	0b
==	==	==	==	==
*-	*-	*-	*-	*-
!!!CDT: 1525/^1526/-1594/2/2
!!!OCY: Italia
!!!AGN: Mass (Paraphrase)
!!!AST: renaissance, vocal
!!!ASW: Antiphon
!!!PWK: Masses, Book 7
!!!RNB: Cadence finals: C,D
!!!YOR: Le Opere Complete, v. 23, p. 82
!!!YOO: Rome, Italy: Fratelli Scalera
!!!END: 1992//
!!!EED: John Miller
!!!YEC: Copyright 2000, John Miller
!!!YEN: United States of America
!!!YEM: Rights to all derivative electronic formats reserved.
!!!YEM: Refer to licensing agreement for further details.
!!!YEM: This file must be accompanied by the licensing agreement.
!!!YEM: A copy of the licensing agreement may be found at http://www.music-cog.ohio-state.edu/HumdrumDatabases/Palestrina/license.txt
!!!EMD: converted to Humdrum by Bret Aarden
